X:1
T:Lilla dici ch'io non t'amo
T:Barbara Strozzi
T:Source: Ariette a voce sola---Opera sesta---Venetia---F.Magni---1657. Editor : André Vierendeels (03/09/16).  
T:Notes : Original clefs : C1, F4 Dotted brackets indicate black notes Figures in BC are notated in original print Original note values have been halved in 3-beat measures
T:Lilla dici ch'io non t'amo
T:©
T:©
T:©
T:©
T:©
C:Barbara Strozzi
Z:©
%%score 1 2
L:1/8
Q:1/4=100
M:6/4
K:C
V:1 treble nm="Soprano" snm="S"
V:2 bass nm="MusicXML Part"
V:1
 z2 A2 B2 c2 BA- ^G2 | z2 c2 d2 e2 dc- B2 | z2 e2 f2 g2 fe d2 | z2 cd ef e2 d4 | %4
w: Lil- la di- ci _ _|ch'io non t'a- mo _ _|Lil- la di- ci _ _|ch'io _ non _ t'a- *|
w: Se- gl'è ver che _ _|do- v'è il be- ne, _|se- glè ver che _ _|do- * v'è _ be- *|
w: Es- cla- mar ti _ _|sen- to o- gno- ra, _|es- cla- mar ti _ _|sen- * to _ o- gno-|
[M:4/4] c2 ef dcde | cBcd BABc | ddAB ccBA |[M:6/4] ^G2 E4 z2 E2 A2 | ^F4 F2 z6 | %9
w: mo, mà chi ve- de quant' io|spen- do per sa- tiar tua men- te'a-|va- ra, quan- to spen- do, quan- to|spen- do và di-|cen- do|
w: ne, i- vi'è pa- tria, dun- que|cre- di ch'in te sol vi- vo gio-|con- do, dun- que cre- di ch'in te|sol vi- vo gio-|con- do,|
w: ra, che con gl'oc- chi'un di ti|stras- si em- pio stral che t'ha fe-|ri- to, di ti stras- si em- pio|stral che t'ha fe-|ri- to,|
 z2 B2 ^F2 G2 F2 E2 | ^D4 B2 cB c^F GA | BA BE ^FG AG A^D EF | G2 ^FG AB AG F4 | E2 B2 e2 c2 B4 | %14
w: che mi sei, che mi|sei pur trop- * * * * *||* po _ _ _ _ _ ca-|ra, va di- cen- do,|
w: che pos- sie- di o-|gni ben ch'a- * * * * *||* ve- * * * * * *|vo, al mon- do: _|
w: ma ve- dras- si che|s'ho trat- * * * * * *||* to _ _ _ _ _ _|ho ben fal- li- to:|
 z6 z2 e2 B2 | c2 B2 A2 ^G4 e2 | fe fB cd ed eA Bc | dc d^G AB c2 Bc de | dc B4 A6 :: %19
w: che mi|sei, che mi sei pur|trop- * * * * * * * * * * *|* * * * * * * po _ _ _|_ _ ca- ra.|
w: che pos-|sei- di o- gni ben|ch'a- * * * * * * * * * * *|* * * * * * * ve- * vo _|al _ mon- do:|
w: e per|mi- o fi- lal tor-|men- * * * * * * * * * * *|* * * * * * to ho _ ben _|fal- * li- to:|
 z2 G2 c2 A2 A2 c2 | d2 de fg e2 ed c2 | z2 ED EF G4 G2 | z2 AG AB cB cd cB | A6 z2 g2 f2 | %24
w: S'io ti giu- ro, o|mio te- * * * so- ro, _ _|che _ t'a- * do- ro,|che _ t'a- * do- * * * * *|ro, non mi|
w: sem- pre chia- mi in-|a- ri- * * * * di- * ta,|o _ mia _ vi- ta,|o _ mia _ vi- * * * * *|ta, la mia|
w: dir- ti sen- to ch'ho|di tè _ _ _ sa- tie _ _|le _ _ _ bra- me|dir- * ti _ sen- * * * * *|to ch'ho di|
 e2 d4 z2 c2 B2 | A2 G4 z2 F2 E2 | F2 GA G>F- E2 E2 F2 | G4 G2 z2 A2 B2 | c4 c2 z2 c2 d2 | %29
w: cre- de, non mi|cre- de, gia'il tuo|co _ _ _ re _ e pur|ve- di, e pur|ve- di che cias-|
w: spe- me, la mia|spe- me e che|si per- * * de, _ e pur|ve- di, e pur|ve- di che per|
w: tè _ ch'ho di|tè _ sa- tie|le bra- * * me, _ e pur|ve- di, e pur|ve- di che per|
[M:3/4] e4 e2 |[M:6/4] e4 e4 e3 ^d | e2 B2 c2 d4 d2 | z2 A2 B2 c4 c2 | z2 B2 A2 ^G4 A2 | %34
w: cum m'è|cre- di- to- re,|_ e pur ve- di,|e pur ve- di|che cias- cum m'è|
w: tè sto|sem- pre'al ver- de,|_ e pur ve- di,|e pur ve- di|che per tè sto|
w: tè mo-|io di fa- me,|_ e pur ve- di,|e pur ve- di|che per tè mo-|
 A4 A4 A3 ^G | A12 |] %36
w: cre- di- to- re.|_|
w: sem- pre'al ver- de.|_|
w: io di fa- me.|_|
V:2
"^BC" A,4 ^G,2 A,4 E,2 | F,6 E,4 D,2 | C,4 D,2 E,4 F,2 |"^BC" G,2 A,2 F,2 G,6 |[M:4/4] C,4 B,,4 | %5
 A,,4 G,,4 |"^BC" F,,4 E,,2 D,,2 |[M:6/4] E,4 D,2 ^C,6 | D,2 B,2 ^F,2 G,2 F,2 E,2 | %9
 ^D,6 E,2 =D,2 C,2 |"^BC""^6" B,,6 A,,6 |"^6""^6#" G,,6 ^F,,6 | E,,2 A,,4- A,,2 B,,4 | %13
 E,6 A,2 E,2 B,,2 |"^BC" C,2 B,,2 A,,2 ^G,,6 | A,,2 G,,2 F,,2 E,,4 E,2 |"^6""^6" D,6 C,6 | %17
"^BC""^6#" B,,6 A,,2 D,4- | D,2 E,4 A,,6 :: C,4 E,2 F,4 A,2 |"^BC" G,6 C,6 | C6 z2 B,A, B,C | %22
 D4 B,2 A,2 ^F,4 | G,2 G,2 F,2 E,4 D,2 |"^BC" C,4 B,,2 A,,4 G,,2 | F,,4 E,,2 D,,4 C,,2 | G,,6 C,6 | %27
 z2 B,,2 C,2 D,6 |"^BC" z2 A,,2 B,,2 C,4 B,,2 |[M:3/4] A,,4 B,,2 |[M:6/4] C,4 A,,4 B,,4 | %31
 E,6 z2 B,,2 C,2 |"^BC" D,6 z2 A,,2 B,,2 | C,2 D,4 E,4 F,2 | E,4 D,4 E,4 | A,,12 |] %36

